X:18
T:Devil or no Devil. Pn1801.18
Q:3/8=120
M:6/8
L:1/8
C:"458""p189"
W:1st Lady hey with her Partner and 2d Gent .| 1st Gent hey with his Partner & 2d Lady :|
W:lead down 2Cu:,up again :|. right and left at top :||:
B:Preston 24 for 1801
Z:Village Music Project, John Adams, 2017
K:G
B/c/|d2B d2B|G2g gfe|dcB dcB|ecA A2B/c/|
d2B d2B|G2g gfe|d2B c2A|B2G G2:|
|:F/G/|AFD DFA| BGE EGB|cAF FAc|
dBG GBd|e2c c2A|A2F F2D|E2G F2A|B2G G2:|
